svgs/thin/lights-holiday.svg

<svg xmlns="http://www.w3.org/2000/svg" viewBox="0 0 640 512"><!--! Font Awesome Pro 6.3.0 by @fontawesome - https://fontawesome.com License - https://fontawesome.com/license (Commercial License) Copyright 2023 Fonticons, Inc. --><path d="M134.1 262.3C134.1 262.3 134.1 262.3 134.1 262.3L167.4 178.9c1.641-4.094-.3438-8.75-4.453-10.41C158.9 166.9 154.2 168.9 152.6 173L119.3 256.4c-.1348 .3359 .0977 .6562 .0117 1C91.62 252 63.85 265.4 54.59 290.3c-10.94 30.41-7.969 99.29 5.875 136.5c.8281 2.219 2.563 3.938 4.766 4.75C66.12 431.8 67.05 432 67.97 432c1.375 0 2.734-.3438 3.953-1.062c35.16-20 82.56-70.99 93.92-100.1c0-.0313 0 0 0 0C170.5 317.6 169.8 303.9 163.9 291.3C158 278.6 147.3 268.4 134.1 262.3zM150.9 324.3c-8.391 22.13-46.05 65.57-78.45 87.48C61.98 374.9 61.59 318.1 69.62 295.8c5.484-14.81 20.66-23.81 37.42-23.81c5.313 0 10.81 .9062 16.19 2.812c11.72 4.188 21.27 12.66 26.2 23.25C153.5 306.7 153.1 316.1 150.9 324.3zM327.7 272.7c.0254-.2578 .2813-.4141 .2813-.6797V191.1c0-4.406-3.578-8-8-8s-8 3.594-8 8v80.01c0 .2656 .2559 .4219 .2813 .6797C283.4 276 260.1 297.4 260.1 323.5c0 30.69 26.78 92.16 53.06 121.8C315.6 447 317.8 448 320.1 448c2.297 0 4.39-.9687 5.905-2.688c26.28-29.66 53.06-91.16 53.06-121.8C379.1 297.4 356.6 275.1 327.7 272.7zM320 427.3c-22.89-30.22-43.03-81.38-43.03-103.9c0-19.57 19.28-35.5 43.02-35.5s43.08 15.93 43.08 35.5C363.1 347.9 341.6 398.7 320 427.3zM638.8 67.81c-2.281-3.75-7.234-4.906-10.98-2.688C544 115.1 434.7 143.1 320 143.1c-114.7 0-224-28-307.9-78.85C8.42 62.91 3.451 64.06 1.154 67.81c-2.281 3.781-1.078 8.719 2.703 11C90.17 131.2 202.5 159.1 320 159.1c117.6 0 229.8-28.82 316.1-81.17C639.9 76.53 641.1 71.59 638.8 67.81zM520.8 257.4c-.0859-.3438 .1465-.6719 .0117-1.008l-33.33-83.35c-1.656-4.094-6.313-6.062-10.39-4.469c-4.109 1.656-6.094 6.312-4.453 10.41l33.33 83.36c.002 .0039-.002-.0039 0 0c-13.15 6.137-23.94 16.3-29.83 28.99c-5.859 12.59-6.531 26.32-1.906 38.7c11.36 29.97 58.77 80.94 93.92 100.9C569.3 431.7 570.7 432 572.1 432c.9219 0 1.844-.1562 2.734-.4687c2.203-.8125 3.938-2.531 4.766-4.75c13.84-37.2 16.81-106.1 5.844-136.5C576.2 265.3 548.5 251.1 520.8 257.4zM567.6 411.8c-32.42-21.91-70.06-65.35-78.45-87.48c-3.094-8.281-2.594-17.62 1.438-26.29c4.938-10.59 14.48-19.06 26.2-23.25c5.391-1.906 10.88-2.812 16.2-2.812c16.75 0 31.92 8.969 37.38 23.75C578.4 318.1 578 374.9 567.6 411.8z"/></svg>

<svg xmlns="http://www.w3.org/2000/svg" viewBox="0 0 640 512"><!-- Font Awesome Pro 6.0.0-alpha2 by @fontawesome - https://fontawesome.com License - https://fontawesome.com/license (Commercial License) --><path d="M134.098 262.309C134.1 262.305 134.106 262.301 134.108 262.297L167.437 178.945C169.077 174.852 167.093 170.195 162.983 168.539C158.858 166.945 154.233 168.914 152.593 173.008L119.264 256.359C119.13 256.695 119.362 257.016 119.276 257.359C91.616 252 63.846 265.359 54.592 290.297C43.654 320.707 46.623 389.586 60.467 426.781C61.295 429 63.03 430.719 65.233 431.531C66.123 431.844 67.045 432 67.967 432C69.342 432 70.702 431.656 71.92 430.938C107.077 410.934 154.483 359.961 165.843 329.992C165.843 329.961 165.843 329.961 165.843 329.961C170.468 317.613 169.796 303.891 163.936 291.297C158.04 278.602 147.251 268.445 134.098 262.309ZM150.874 324.332C142.483 346.461 104.827 389.898 72.42 411.809C61.983 374.867 61.592 318.113 69.623 295.797C75.108 280.984 90.28 271.984 107.045 271.984C112.358 271.984 117.858 272.891 123.233 274.797C134.952 278.984 144.499 287.453 149.436 298.047C153.452 306.707 153.968 316.051 150.874 324.332ZM327.734 272.664C327.76 272.406 328.016 272.25 328.016 271.984V191.977C328.016 187.57 324.438 183.977 320.016 183.977S312.016 187.57 312.016 191.977V271.984C312.016 272.25 312.271 272.406 312.297 272.664C283.414 276.008 260.984 297.391 260.984 323.488C260.984 354.18 287.765 415.652 314.047 445.312C315.562 447.031 317.75 448 320.031 448C322.328 448 324.5 447.031 326.015 445.312C352.297 415.652 379.079 354.148 379.079 323.488C379.079 297.383 356.631 275.992 327.734 272.664ZM320.016 427.344C297.125 397.121 276.984 345.961 276.984 323.488C276.984 303.922 296.297 287.984 320.031 287.984S363.078 303.922 363.078 323.488C363.078 347.867 341.578 398.684 320.016 427.344ZM638.846 67.812C636.565 64.062 631.611 62.906 627.861 65.125C544.017 115.969 434.688 143.973 320 143.973C205.327 143.973 95.999 115.969 12.139 65.125C8.42 62.906 3.451 64.062 1.154 67.812C-1.127 71.594 0.076 76.531 3.857 78.812C90.17 131.16 202.452 159.977 320 159.977C437.563 159.977 549.845 131.16 636.143 78.812C639.924 76.531 641.127 71.594 638.846 67.812ZM520.755 257.367C520.669 257.023 520.902 256.695 520.767 256.359L487.439 173.008C485.782 168.914 481.126 166.945 477.048 168.539C472.938 170.195 470.954 174.852 472.595 178.945L505.923 262.297C505.925 262.301 505.931 262.305 505.933 262.309C492.78 268.445 481.991 278.602 476.095 291.297C470.235 303.891 469.563 317.613 474.189 329.992C485.548 359.961 532.955 410.934 568.111 430.938C569.33 431.656 570.689 432 572.064 432C572.986 432 573.908 431.844 574.799 431.531C577.002 430.719 578.736 429 579.564 426.781C593.408 389.586 596.377 320.707 585.408 290.234C576.193 265.344 548.498 251.992 520.755 257.367ZM567.611 411.809C535.189 389.898 497.548 346.461 489.157 324.332C486.064 316.051 486.564 306.707 490.595 298.047C495.532 287.453 505.079 278.984 516.798 274.797C522.189 272.891 527.673 271.984 533.001 271.984C549.751 271.984 564.923 280.953 570.377 295.734C578.439 318.113 578.049 374.867 567.611 411.809Z"/></svg>
